humanity-icon-theme/Humanity-Dark/apps/48/gsd-xrandr.svg

<?xml version="1.0" encoding="UTF-8" standalone="no"?>
<!-- Created with Inkscape (http://www.inkscape.org/) -->

<svg
   xmlns:svg="http://www.w3.org/2000/svg"
   xmlns="http://www.w3.org/2000/svg"
   xmlns:xlink="http://www.w3.org/1999/xlink"
   version="1.0"
   width="48"
   height="48"
   id="svg2">
  <defs
     id="defs4">
    <linearGradient
       id="linearGradient6565">
      <stop
         id="stop6567"
         style="stop-color:white;stop-opacity:1"
         offset="0" />
      <stop
         id="stop6569"
         style="stop-color:white;stop-opacity:0"
         offset="1" />
    </linearGradient>
    <linearGradient
       id="linearGradient7025">
      <stop
         id="stop7027"
         style="stop-color:#e6ce46;stop-opacity:1"
         offset="0" />
      <stop
         id="stop7029"
         style="stop-color:#d6ba1c;stop-opacity:1"
         offset="1" />
    </linearGradient>
    <linearGradient
       id="linearGradient10691">
      <stop
         id="stop10693"
         style="stop-color:black;stop-opacity:1"
         offset="0" />
      <stop
         id="stop10695"
         style="stop-color:black;stop-opacity:0"
         offset="1" />
    </linearGradient>
    <linearGradient
       id="linearGradient6732">
      <stop
         id="stop6734"
         style="stop-color:#505050;stop-opacity:1"
         offset="0" />
      <stop
         id="stop6736"
         style="stop-color:#a0a0a0;stop-opacity:1"
         offset="0.35046947" />
      <stop
         id="stop6738"
         style="stop-color:#aaa;stop-opacity:1"
         offset="0.58326507" />
      <stop
         id="stop6740"
         style="stop-color:#bebebe;stop-opacity:1"
         offset="0.72270131" />
      <stop
         id="stop6742"
         style="stop-color:#6e6e6e;stop-opacity:1"
         offset="1" />
    </linearGradient>
    <linearGradient
       id="linearGradient6718">
      <stop
         id="stop6720"
         style="stop-color:#141414;stop-opacity:1"
         offset="0" />
      <stop
         id="stop6722"
         style="stop-color:#3c3c3c;stop-opacity:1"
         offset="1" />
    </linearGradient>
    <linearGradient
       id="linearGradient6712">
      <stop
         id="stop6714"
         style="stop-color:#3c3c3c;stop-opacity:1"
         offset="0" />
      <stop
         id="stop6716"
         style="stop-color:#1e1e1e;stop-opacity:1"
         offset="1" />
    </linearGradient>
    <linearGradient
       id="linearGradient6620">
      <stop
         id="stop6622"
         style="stop-color:#787878;stop-opacity:1"
         offset="0" />
      <stop
         id="stop6624"
         style="stop-color:#bebebe;stop-opacity:1"
         offset="0.35046947" />
      <stop
         id="stop6626"
         style="stop-color:#c8c8c8;stop-opacity:1"
         offset="0.58326507" />
      <stop
         id="stop6628"
         style="stop-color:#e6e6e6;stop-opacity:1"
         offset="0.72270131" />
      <stop
         id="stop6630"
         style="stop-color:#8c8c8c;stop-opacity:1"
         offset="1" />
    </linearGradient>
    <linearGradient
       id="linearGradient6544">
      <stop
         id="stop6546"
         style="stop-color:#f0f0f0;stop-opacity:1"
         offset="0" />
      <stop
         id="stop6548"
         style="stop-color:#d2d2d2;stop-opacity:1"
         offset="1" />
    </linearGradient>
    <linearGradient
       id="linearGradient6592">
      <stop
         id="stop6594"
         style="stop-color:white;stop-opacity:0.27450982"
         offset="0" />
      <stop
         id="stop6596"
         style="stop-color:white;stop-opacity:0"
         offset="1" />
    </linearGradient>
    <linearGradient
       id="linearGradient6602">
      <stop
         id="stop6604"
         style="stop-color:white;stop-opacity:1"
         offset="0" />
      <stop
         id="stop6606"
         style="stop-color:white;stop-opacity:0"
         offset="1" />
    </linearGradient>
    <radialGradient
       cx="9.0261755"
       cy="15.064299"
       r="18.258797"
       fx="9.0261755"
       fy="15.064299"
       id="radialGradient5540"
       xlink:href="#linearGradient6565"
       gradientUnits="userSpaceOnUse"
       gradientTransform="matrix(1.2852003,-1.5925494e-8,0,0.9559277,-5.5668093,-3.0819819)" />
    <linearGradient
       x1="13.630114"
       y1="28.5"
       x2="25.208096"
       y2="41.180992"
       id="linearGradient5548"
       xlink:href="#linearGradient7025"
       gradientUnits="userSpaceOnUse"
       gradientTransform="matrix(0.9230753,0,0,0.8999979,0.3461944,-6.6499375)" />
    <linearGradient
       x1="12.9375"
       y1="8.4375"
       x2="15.25"
       y2="19.8125"
       id="linearGradient5551"
       xlink:href="#linearGradient6592"
       gradientUnits="userSpaceOnUse"
       gradientTransform="matrix(0.904762,0,0,1.1999992,2.2857142,2.4000022)" />
    <radialGradient
       cx="12.244348"
       cy="4.8630676"
       r="20.999998"
       fx="12.244348"
       fy="4.8630676"
       id="radialGradient5554"
       xlink:href="#linearGradient6712"
       gradientUnits="userSpaceOnUse"
       gradientTransform="matrix(1.3155525,0.01927686,-0.01224879,1.0775744,-3.2306064,6.0779115)" />
    <linearGradient
       x1="24.875"
       y1="29"
       x2="24.999996"
       y2="3.0000005"
       id="linearGradient5556"
       xlink:href="#linearGradient6718"
       gradientUnits="userSpaceOnUse"
       gradientTransform="matrix(0.9512102,0,0,1.0799846,1.1709571,1.720238)" />
    <radialGradient
       cx="0.99999994"
       cy="5.5642838"
       r="22.999998"
       fx="0.99999994"
       fy="5.5642838"
       id="radialGradient5559"
       xlink:href="#linearGradient6602"
       gradientUnits="userSpaceOnUse"
       gradientTransform="matrix(0.9555509,0,0,0.6971467,1.0667785,7.8456642)" />
    <linearGradient
       x1="20.147005"
       y1="-0.00049710274"
       x2="20.103531"
       y2="31.98299"
       id="linearGradient5562"
       xlink:href="#linearGradient6544"
       gradientUnits="userSpaceOnUse"
       gradientTransform="matrix(0.959002,0,0,1.0656257,0.9836815,1.9502578)" />
    <radialGradient
       cx="24.000004"
       cy="38.641167"
       r="7.9999971"
       fx="24.000004"
       fy="38.641167"
       id="radialGradient5565"
       xlink:href="#linearGradient6602"
       gradientUnits="userSpaceOnUse"
       gradientTransform="matrix(1.8286406,-3.1440363e-8,0,0.4381505,-19.887387,26.069353)" />
    <linearGradient
       x1="320.28125"
       y1="86.913208"
       x2="320.28125"
       y2="93.379616"
       id="linearGradient5568"
       xlink:href="#linearGradient6620"
       gradientUnits="userSpaceOnUse"
       gradientTransform="matrix(0.9964089,0,0,1.0001438,-294.882,-51.012717)" />
    <linearGradient
       x1="21.71751"
       y1="35.909012"
       x2="21.686279"
       y2="42.361362"
       id="linearGradient5570"
       xlink:href="#linearGradient6732"
       gradientUnits="userSpaceOnUse" />
    <radialGradient
       cx="6.702713"
       cy="73.615715"
       r="7.228416"
       fx="6.702713"
       fy="73.615715"
       id="radialGradient5573"
       xlink:href="#linearGradient10691"
       gradientUnits="userSpaceOnUse"
       gradientTransform="matrix(1.9368007,0,0,0.4150287,11.018182,12.447365)" />
  </defs>
  <g
     id="g6347">
    <path
       d="m 38,43 c 0,1.656855 -6.268014,3 -14.000001,3 C 16.268013,46 10,44.656855 10,43 10,41.343146 16.268013,40 23.999999,40 31.731986,40 38,41.343146 38,43 l 0,0 z"
       id="path2589"
       style="opacity:0.5;fill:url(#radialGradient5573);fill-opacity:1;fill-rule:nonzero;stroke:none;stroke-width:0.80000001;marker:none;visibility:visible;display:inline;overflow:visible" />
    <path
       d="m 18.488603,31.499143 c 0,0 0,7.001 0,7.001 -0.02202,1.80223 -1.86851,3.00043 -1.86851,3.00043 -0.74866,0.08844 -1.12096,0.44607 -1.12096,1.00015 0,0.55408 0.50401,1.00014 1.12096,1.00014 l 14.7598,0 c 0.61695,0 1.12096,-0.44606 1.12096,-1.00014 0,-0.55408 -0.3723,-0.91171 -1.12096,-1.00015 0,0 -1.84649,-1.1982 -1.86851,-3.00043 0,0 0,-7.001 0,-7.001 l -11.02278,0 z"
       id="path4675"
       style="fill:url(#linearGradient5568);fill-opacity:1;stroke:url(#linearGradient5570);stroke-width:0.99827462;stroke-linecap:round;stroke-linejoin:round;stroke-miterlimit:4;stroke-opacity:1;stroke-dasharray:none;stroke-dashoffset:0.50000001;display:inline;enable-background:new" />
    <rect
       width="15.999994"
       height="1.0000002"
       rx="0.44444439"
       ry="0.50000012"
       x="16.000002"
       y="41.999954"
       id="rect4703"
       style="opacity:0.8;fill:url(#radialGradient5565);fill-opacity:1;stroke:none;display:inline;enable-background:new" />
    <rect
       width="44.99976"
       height="32.99976"
       rx="1"
       ry="1"
       x="1.5001197"
       y="2.5001206"
       id="rect2722"
       style="fill:url(#linearGradient5562);fill-opacity:1;stroke:#aaa;stroke-width:1.00023937;stroke-linecap:round;stroke-linejoin:round;stroke-miterlimit:4;stroke-opacity:1;stroke-dasharray:none;stroke-dashoffset:0.50000001" />
    <rect
       width="42.999718"
       height="30.999718"
       rx="0"
       ry="0"
       x="2.5001411"
       y="3.5001411"
       id="rect4642"
       style="fill:none;stroke:url(#radialGradient5559);stroke-width:1.00028229;stroke-linecap:round;stroke-linejoin:round;stroke-miterlimit:4;stroke-opacity:1;stroke-dasharray:none;stroke-dashoffset:0.50000001;display:inline;enable-background:new" />
    <rect
       width="38.999599"
       height="26.999599"
       x="4.5002003"
       y="5.5002003"
       id="rect2716"
       style="fill:url(#radialGradient5554);fill-opacity:1;fill-rule:evenodd;stroke:url(#linearGradient5556);stroke-width:1.0004003;stroke-linecap:butt;stroke-linejoin:round;stroke-miterlimit:4;stroke-opacity:1;stroke-dasharray:none;display:inline;enable-background:new" />
    <path
       d="M 5,6 43,6 43,15.600005 5,24 5,6 z"
       id="rect6588"
       style="fill:url(#linearGradient5551);fill-opacity:1;stroke:none" />
    <path
       d="m 4.500033,5.5000331 0,26.9999339 35.999934,0 L 4.500033,5.5000331 z M 9.5,16.5 l 15,11 -15,0 0,-11 z"
       id="path4319"
       style="fill:url(#linearGradient5548);fill-opacity:1;fill-rule:evenodd;stroke:#a38503;stroke-width:1.00006592;stroke-linecap:butt;stroke-linejoin:round;stroke-miterlimit:4;stroke-opacity:1;stroke-dasharray:none" />
    <path
       d="m 9.4998456,32.500154 0,-2.000308"
       id="path4326"
       style="fill:none;stroke:#a38503;stroke-width:0.99969125;stroke-linecap:round;stroke-linejoin:round;stroke-miterlimit:4;stroke-opacity:1;stroke-dasharray:none" />
    <path
       d="m 14.499846,32.500154 0,-2.000308"
       id="path4328"
       style="fill:none;stroke:#a38503;stroke-width:0.99969125;stroke-linecap:round;stroke-linejoin:round;stroke-miterlimit:4;stroke-opacity:1;stroke-dasharray:none" />
    <path
       d="m 19.499846,32.500154 0,-1.976496"
       id="path4330"
       style="fill:none;stroke:#a38503;stroke-width:0.99969125;stroke-linecap:round;stroke-linejoin:round;stroke-miterlimit:4;stroke-opacity:1;stroke-dasharray:none" />
    <path
       d="m 24.499846,32.500154 0,-2.000308"
       id="path4332"
       style="fill:none;stroke:#a38503;stroke-width:0.99969125;stroke-linecap:round;stroke-linejoin:round;stroke-miterlimit:4;stroke-opacity:1;stroke-dasharray:none" />
    <path
       d="m 29.499846,32.500154 0,-2.000308"
       id="path4334"
       style="fill:none;stroke:#a38503;stroke-width:0.99969125;stroke-linecap:round;stroke-linejoin:round;stroke-miterlimit:4;stroke-opacity:1;stroke-dasharray:none" />
    <path
       d="m 5.5001857,7.5001855 0,23.9996285 31.9996283,0 L 5.5001857,7.5001855 z M 10.5,16 25,26.5 c 0.546005,0.395383 0.374065,2 -0.300063,2 l -14.612195,0 C 9.3655334,28.5 8.5,27.747983 8.5,27.025774 l 0,-9.707535 C 8.5,16.646745 9.9561287,15.606162 10.5,16 z"
       id="path14994"
       style="opacity:0.5;fill:none;stroke:url(#radialGradient5540);stroke-width:1.00037134;stroke-linecap:butt;stroke-linejoin:round;stroke-miterlimit:4;stroke-opacity:1;stroke-dasharray:none;display:inline" />
  </g>
</svg>

<?xml version="1.0" encoding="UTF-8" standalone="no"?>
<!-- Created with Inkscape (http://www.inkscape.org/) -->
<svg id="svg2" xmlns="http://www.w3.org/2000/svg" height="48" width="48" version="1.0" xmlns:xlink="http://www.w3.org/1999/xlink">
 <defs id="defs4">
  <linearGradient id="linearGradient6602">
   <stop id="stop6604" style="stop-color:#fff" offset="0"/>
   <stop id="stop6606" style="stop-color:#fff;stop-opacity:0" offset="1"/>
  </linearGradient>
  <radialGradient id="radialGradient5540" gradientUnits="userSpaceOnUse" cy="15.064" cx="9.0262" gradientTransform="matrix(1.2852 -1.5925e-8 0 .95593 -5.5668 -3.082)" r="18.259">
   <stop id="stop6567" style="stop-color:#fff" offset="0"/>
   <stop id="stop6569" style="stop-color:#fff;stop-opacity:0" offset="1"/>
  </radialGradient>
  <linearGradient id="linearGradient5548" y2="41.181" gradientUnits="userSpaceOnUse" x2="25.208" gradientTransform="matrix(.92308 0 0 0.9 .34619 -6.6499)" y1="28.5" x1="13.63">
   <stop id="stop7027" style="stop-color:#e6ce46" offset="0"/>
   <stop id="stop7029" style="stop-color:#d6ba1c" offset="1"/>
  </linearGradient>
  <linearGradient id="linearGradient5551" y2="19.812" gradientUnits="userSpaceOnUse" x2="15.25" gradientTransform="matrix(.90476 0 0 1.2 2.2857 2.4)" y1="8.4375" x1="12.938">
   <stop id="stop6594" style="stop-color:#fff;stop-opacity:.27451" offset="0"/>
   <stop id="stop6596" style="stop-color:#fff;stop-opacity:0" offset="1"/>
  </linearGradient>
  <radialGradient id="radialGradient5554" gradientUnits="userSpaceOnUse" cy="4.8631" cx="12.244" gradientTransform="matrix(1.3156 .019277 -.012249 1.0776 -3.2306 6.0779)" r="21">
   <stop id="stop6714" style="stop-color:#3c3c3c" offset="0"/>
   <stop id="stop6716" style="stop-color:#1e1e1e" offset="1"/>
  </radialGradient>
  <linearGradient id="linearGradient5556" y2="3" gradientUnits="userSpaceOnUse" x2="25" gradientTransform="matrix(.95121 0 0 1.08 1.171 1.7202)" y1="29" x1="24.875">
   <stop id="stop6720" style="stop-color:#141414" offset="0"/>
   <stop id="stop6722" style="stop-color:#3c3c3c" offset="1"/>
  </linearGradient>
  <radialGradient id="radialGradient5559" xlink:href="#linearGradient6602" gradientUnits="userSpaceOnUse" cy="5.5643" cx="1" gradientTransform="matrix(.95555 0 0 .69715 1.0668 7.8457)" r="23"/>
  <linearGradient id="linearGradient5562" y2="31.983" gradientUnits="userSpaceOnUse" x2="20.104" gradientTransform="matrix(0.959 0 0 1.0656 .98368 1.9503)" y1="-.00049710" x1="20.147">
   <stop id="stop6546" style="stop-color:#f0f0f0" offset="0"/>
   <stop id="stop6548" style="stop-color:#d2d2d2" offset="1"/>
  </linearGradient>
  <radialGradient id="radialGradient5565" xlink:href="#linearGradient6602" gradientUnits="userSpaceOnUse" cy="38.641" cx="24" gradientTransform="matrix(1.8286 -3.144e-8 0 .43815 -19.887 26.069)" r="8"/>
  <linearGradient id="linearGradient5568" y2="93.38" gradientUnits="userSpaceOnUse" x2="320.28" gradientTransform="matrix(.99641 0 0 1.0001 -294.88 -51.013)" y1="86.913" x1="320.28">
   <stop id="stop6622" style="stop-color:#787878" offset="0"/>
   <stop id="stop6624" style="stop-color:#bebebe" offset=".35047"/>
   <stop id="stop6626" style="stop-color:#c8c8c8" offset=".58327"/>
   <stop id="stop6628" style="stop-color:#e6e6e6" offset=".72270"/>
   <stop id="stop6630" style="stop-color:#8c8c8c" offset="1"/>
  </linearGradient>
  <linearGradient id="linearGradient5570" y2="42.361" gradientUnits="userSpaceOnUse" x2="21.686" y1="35.909" x1="21.718">
   <stop id="stop6734" style="stop-color:#505050" offset="0"/>
   <stop id="stop6736" style="stop-color:#a0a0a0" offset=".35047"/>
   <stop id="stop6738" style="stop-color:#aaa" offset=".58327"/>
   <stop id="stop6740" style="stop-color:#bebebe" offset=".72270"/>
   <stop id="stop6742" style="stop-color:#6e6e6e" offset="1"/>
  </linearGradient>
  <radialGradient id="radialGradient5573" gradientUnits="userSpaceOnUse" cy="73.616" cx="6.7027" gradientTransform="matrix(1.9368 0 0 .41503 11.018 12.447)" r="7.2284">
   <stop id="stop10693" offset="0"/>
   <stop id="stop10695" style="stop-opacity:0" offset="1"/>
  </radialGradient>
 </defs>
 <g id="g6347">
  <path id="path2589" style="opacity:.5;fill:url(#radialGradient5573)" d="m38 43c0 1.6569-6.268 3-14 3s-14-1.343-14-3 6.268-3 14-3 14 1.343 14 3z"/>
  <path id="path4675" style="stroke-linejoin:round;stroke-width:.99827;stroke-dashoffset:0.5;stroke:url(#linearGradient5570);stroke-linecap:round;enable-background:new;fill:url(#linearGradient5568)" d="m18.489 31.499v7.001c-0.02202 1.8022-1.8685 3.0004-1.8685 3.0004-0.74866 0.08844-1.121 0.44607-1.121 1.0002 0 0.55408 0.50401 1.0001 1.121 1.0001h14.76c0.61695 0 1.121-0.44606 1.121-1.0001 0-0.55408-0.3723-0.91171-1.121-1.0002 0 0-1.8465-1.1982-1.8685-3.0004v-7.001h-11.023z"/>
  <rect id="rect4703" style="opacity:.8;enable-background:new;fill:url(#radialGradient5565)" rx=".44444" ry="0.5" height="1" width="16" y="42" x="16"/>
  <rect id="rect2722" style="stroke-linejoin:round;stroke-dashoffset:0.5;stroke:#aaa;stroke-linecap:round;stroke-width:1.0002;fill:url(#linearGradient5562)" rx="1" ry="1" height="33" width="45" y="2.5001" x="1.5001"/>
  <rect id="rect4642" style="stroke-linejoin:round;stroke-width:1.0003;stroke-dashoffset:0.5;stroke:url(#radialGradient5559);stroke-linecap:round;enable-background:new;fill:none" rx="0" ry="0" height="31" width="43" y="3.5001" x="2.5001"/>
  <rect id="rect2716" style="stroke-linejoin:round;stroke-width:1.0004;fill-rule:evenodd;stroke:url(#linearGradient5556);enable-background:new;fill:url(#radialGradient5554)" height="27" width="39" y="5.5002" x="4.5002"/>
  <path id="rect6588" style="fill:url(#linearGradient5551)" d="m5 6h38v9.6l-38 8.4v-18z"/>
  <path id="path4319" style="stroke-linejoin:round;fill-rule:evenodd;stroke:#a38503;stroke-width:1.0001;fill:url(#linearGradient5548)" d="m4.5 5.5v27h36l-36-27zm5 11l15 11h-15v-11z"/>
  <path id="path4326" style="stroke-linejoin:round;stroke:#a38503;stroke-linecap:round;stroke-width:.99969;fill:none" d="m9.4998 32.5v-2.0003"/>
  <path id="path4328" style="stroke-linejoin:round;stroke:#a38503;stroke-linecap:round;stroke-width:.99969;fill:none" d="m14.5 32.5v-2.0003"/>
  <path id="path4330" style="stroke-linejoin:round;stroke:#a38503;stroke-linecap:round;stroke-width:.99969;fill:none" d="m19.5 32.5v-1.9765"/>
  <path id="path4332" style="stroke-linejoin:round;stroke:#a38503;stroke-linecap:round;stroke-width:.99969;fill:none" d="m24.5 32.5v-2.0003"/>
  <path id="path4334" style="stroke-linejoin:round;stroke:#a38503;stroke-linecap:round;stroke-width:.99969;fill:none" d="m29.5 32.5v-2.0003"/>
  <path id="path14994" style="opacity:.5;stroke-linejoin:round;stroke:url(#radialGradient5540);stroke-width:1.0004;fill:none" d="m5.5002 7.5002v24h32l-32-24zm4.9998 8.4998 14.5 10.5c0.546 0.39538 0.37406 2-0.30006 2h-14.612c-0.7225 0-1.588-0.752-1.588-1.474v-9.7075c0-0.671 1.4561-1.712 2-1.318z"/>
 </g>
</svg>
